X:1
T:Title
%%score { 1 | ( 2 3 ) }
L:1/8
M:3/4
K:Eb
V:1 treble nm="Grand Piano"
V:2 bass 
V:3 bass 
V:1
 z2 z2[Q:1/4=100] [B,DB]2 | [B,EG]2 [B,EG]2 [A,DF]2 | [G,E]4 [B,DF]2 | [B,EG]2 [CEG]2 [CE=A]2 | %4
 [B,DB]4 [EB]2 | [Ee]2 [FB]2 [DA]2 |[M:2/4] [EG]4 |[M:1/4] [EB]2 |[M:3/4] [Ec]2 [EB]2 .[CEA]2 | %9
 [F,EF]2 [B,DF]2 [B,FB]2 | [B,EG]2 [B,EG]2 [A,DF]2 |[M:6/4] .[G,E]6 z6 |[M:3/4] [A,CE]6 | %13
 [G,B,E]6 |] %14
V:2
 z2 z2 B,,2 | E,2 G,,2 B,,2 | E,4 B,,2 | E,2 C,2 F,2 | B,,4 [E,G,]2 | [G,B,]2 [D,B,]2 [B,,B,]2 | %6
[M:2/4] [E,B,]4 |[M:1/4] [E,G,]2 |[M:3/4] [A,,A,]2 [E,G,]2 z G | B,,2 B,,2 D,2 | E,2 G,,2 B,,2 | %11
[M:6/4] .E,6 z6 |[M:3/4] A,,6 | E,6 |] %14
V:3
 x6 | x6 | x6 | x6 | x6 | x6 |[M:2/4] x4 |[M:1/4] x2 |[M:3/4] z2 z2 A,,2 | x6 | x6 |[M:6/4] x12 | %12
[M:3/4] x6 | x6 |] %14

